!!!OTL: Zhouzongli laidao zanzaiqu
!!!ARE: Asia, China,ÿHebei Xingtai
!! IV, 13
!!!SCT: C1910
!!!YEM: Copyright 1995, estate of Helmut Schaffrath.
**kern
*ICvox
*Ivox
*M2/4
*k[f#c#g#d#]
*E:
{8cc#
4ff#
16dd#
16cc#
=1
8b
16g#
16f#
8g#
8b
=2
8cc#
8ee
16cc#
16b
16g#
16f#
=3
2g#}
=4
{8cc#
4b
8cc#
=5
16g#
16b
16g#
16f#
8e
8c#
=6
8g#
16f#
16g#
8e
8c#
=7
2f#}
=8
{8g#
16f#
16g#
4b
=9
8cc#
16ff#
16dd#
8cc#
8b
=10
8.f#
16g#
8b
16cc#
16ee
=11
16g#
16b
16g#
16f#
8e
8c#}
=12
{8.e
16f#
8g#
8b
=13
8g#
16f#
16g#
8e
8c#
=14
8g#
16f#
16g#
8f#
8d#
=15
2c#}
==
!!!AGN: Xiaodiao, Shibeijiu
!!!AMT: simple duple
!!!AIN: vox
!!!EED: Helmut Schaffrath
!!!EEV: 1.0
*-
